X: 26585
T: Mick Hoy's Recipe For Boiled Cabbage
R: mazurka
M: 3/4
K: Eminor
|:G>F|E>G B2 c>B|E>G B2 c>B|A>G F2 G>A|B>G F2 (3AGF|
E>G (3BcB c>B|E>G B2- B>G|A>G F2 B2|E2 E2:|
|:G>F|E2- E>F (3GFE|A>G F2 F>E|^D2 D>E (3FED|B>A F>G F>^D|
E2 E>F G>E|A>G F2 (3FGA|B>G F2 G>F|E2 E2:|
|:^D2|D2 d>e d>c|c2 B>^A B2|D>F A>F D>F|(3GAG (3FGF (3EFE|
D>A d>e d>c|c2 B>^A B2|D>F A>F (3DEF|1 G2 (3EGE:|2 E2 E2||

